X: 38177
T: Spot, The
R: hornpipe
M: 4/4
K: Cmajor
(3GAB|c>Bc>d (3efe d>c|B>cd>e f2 e>d|c>Be>d f>ed>c|B<dG>^F G>fe>d|
c<AF<A c>ef>e|d<BG>B d>gf>d|e>ge>c d>fd>B|1 c2 e2 c2:|2 c2 e2 c>ef>^f||
g>eg>e (3c'ba g>e|b>fa>f c'2 b>f|c>Be>d f>ed>c|B<dG>^F G2 e>f|
g>eg>e (3c'ba g>e|b>fb>f c'>bg>f|e>ge>c d>fd>B|1 c>Ge>d c>ef>^f:|2 c2 E2 C2||

